X:50
T: AUS IST DAS LIEDCHEN
N: E0666
O: Europa, Mitteleuropa, Deutschland, Hessen; Ober - Lahnkreis; Limburg
R: Liebes - Lied
M: 2/4
L: 1/8
K: F
 | CCA,A, | G,G,F,
F, | CCA,A, | G,G,F,z |
CCCC | DDD2 |
CCDE | FFF2

@@@ Tune index: 4363
